brandFactory_export/3.Masa/Bateria media_3Masa.svg

<?xml version="1.0" encoding="UTF-8"?>
<svg width="24px" height="24px" viewBox="0 0 24 24" version="1.1" xmlns="http://www.w3.org/2000/svg" xmlns:xlink="http://www.w3.org/1999/xlink">
    <title>3.Masa/Bateria media_3Masa</title>
    <g id="Symbols" stroke="none" stroke-width="1" fill="none" fill-rule="evenodd">
        <g id="3.Masa/Bateria-media_3Masa" fill="#5CB615" fill-rule="nonzero">
            <path d="M18.2605042,19.6067227 L18.2605042,6.57478992 C18.2605042,5.68403361 18.0621849,5.05546218 17.6521008,4.6487395 C17.2420168,4.24537815 16.6033613,4.04705882 15.6957983,4.04705882 L9.08739496,4.04705882 C8.19327731,4.04705882 7.55462185,4.2487395 7.13781513,4.66554622 C6.72436975,5.07563025 6.52268908,5.70084034 6.52268908,6.57478992 L6.52268908,19.6033613 C6.52268908,20.5008403 6.7210084,21.1361345 7.13445378,21.5361345 C7.54117647,21.9361345 8.17983193,22.1277311 9.08403361,22.1277311 L15.6957983,22.1277311 C16.6,22.1277311 17.2420168,21.9361345 17.6487395,21.5361345 C18.0621849,21.1394958 18.2605042,20.5042017 18.2605042,19.6067227 L18.2605042,19.6067227 Z M10.6705882,1.59663866 C10.5831933,1.68403361 10.5630252,1.87563025 10.5630252,2.02352941 L10.5630252,2.55798319 L14.2201681,2.55798319 L14.2201681,2.02352941 C14.2201681,1.89915966 14.2067227,1.68067227 14.1159664,1.59327731 C14.0285714,1.50588235 13.8067227,1.49243697 13.6823529,1.49243697 L11.1042017,1.49243697 C10.9529412,1.49243697 10.7579832,1.5092437 10.6705882,1.59663866 L10.6705882,1.59663866 Z M18.7243697,3.59663866 C19.4302521,4.29579832 19.7731092,5.26722689 19.7731092,6.57478992 L19.7731092,19.6067227 C19.7731092,20.9243697 19.4268908,21.902521 18.7142857,22.5983193 C18.0084034,23.287395 17.0201681,23.6235294 15.6957983,23.6235294 L9.08739496,23.6235294 C7.76302521,23.6235294 6.77478992,23.287395 6.06890756,22.5983193 C5.35630252,21.8991597 5.01008403,20.9210084 5.01008403,19.6033613 L5.01008403,6.57478992 C5.01008403,5.28739496 5.35294118,4.31932773 6.05882353,3.61680672 C6.76806723,2.91092437 7.74957983,2.56470588 9.05042017,2.55798319 L9.05042017,2.02352941 C9.05042017,1.40504202 9.23193277,0.907563025 9.59495798,0.54789916 C9.95798319,0.18487395 10.4655462,0 11.1008403,0 L13.6789916,0 C14.3176471,0 14.8252101,0.181512605 15.1882353,0.541176471 C15.5478992,0.900840336 15.7327731,1.39831933 15.7327731,2.02352941 L15.7327731,2.55798319 C17.0436975,2.56470588 18.0252101,2.90420168 18.7243697,3.59663866 Z M16.6067227,11.7915966 C17.0235294,11.7915966 17.3630252,12.1243697 17.3630252,12.5378151 L17.3630252,18.8571429 C17.3630252,20.3193277 16.1563025,21.5058824 14.6739496,21.5058824 L10.112605,21.5058824 C8.6302521,21.5058824 7.42352941,20.3193277 7.42352941,18.8571429 L7.42352941,12.5378151 C7.42352941,12.1277311 7.76302521,11.7915966 8.17983193,11.7915966 L16.6067227,11.7915966 L16.6067227,11.7915966 Z" id="Bateria-media_3Masa"></path>
        </g>
    </g>
</svg>

<svg width="24" height="24" viewBox="0 0 24 24" xmlns="http://www.w3.org/2000/svg"><path d="M18.26 19.607V6.575c0-.891-.198-1.52-.608-1.926-.41-.404-1.049-.602-1.956-.602H9.087c-.894 0-1.532.202-1.95.619-.413.41-.614 1.035-.614 1.909v13.028c0 .898.198 1.533.611 1.933.407.4 1.046.592 1.95.592h6.612c.904 0 1.546-.192 1.953-.592.413-.397.612-1.032.612-1.93zm-7.59-18.01c-.087.087-.107.279-.107.427v.534h3.657v-.534c0-.125-.013-.343-.104-.43-.087-.088-.31-.102-.434-.102h-2.578c-.151 0-.346.017-.433.105zm8.054 2c.706.699 1.05 1.67 1.05 2.978v13.032c0 1.317-.347 2.296-1.06 2.991-.706.69-1.694 1.026-3.018 1.026H9.087c-1.324 0-2.312-.337-3.018-1.026-.713-.699-1.059-1.677-1.059-2.995V6.575c0-1.288.343-2.256 1.049-2.958.71-.706 1.69-1.052 2.991-1.059v-.534c0-.619.182-1.116.545-1.476.363-.363.87-.548 1.506-.548h2.578c.639 0 1.146.182 1.51.541.359.36.544.857.544 1.483v.534c1.31.007 2.292.346 2.991 1.039zm-2.117 8.195c.417 0 .756.332.756.746v6.32c0 1.461-1.207 2.648-2.69 2.648h-4.56c-1.483 0-2.69-1.187-2.69-2.649v-6.32c0-.41.34-.745.757-.745h8.427z" fill="#5CB615" fill-rule="nonzero"/></svg>
